X: 30
T:Montrose's Reel. JC.029
M:C
L:1/8
Q:180
S:John Clare,Poet,Helpston. (1793-1864)
R:Reel
O:England
A:Northamptonshire
N:
Z:vmp.P. Headford
K:G
GG/G/ BG dGBG|GG/G/ BG d3B|(3cdc  .e.c (3BcB .d.B| ABcA GFED|!
GG/G/ BG dGBG|GG/G/ BG d3B|cc/c/  ec BB/B/ dB|cAGFG2G2:|!
|:(3gag b2 (3efe g2|d>edB AFD2|(3gag bg (3efe gf|dBcA GG/G/G2:|]
